X:368
T:Reel 368
M:4/4
K:Dmaj
L:1/8
FG|ADFD ECA,G|ADFD EA,CE|ADFD CDEG|FDEC D2FG|ADFD ECA,G|FDFD G2FG|AFGE FDEC|A,DDC D2|D2|FGAB cdcB|Addc d2AG|FGAB cded|cAGE D2FG|FGAB cdBG|FGAB c2Ad|cdec dBAG|FDEC D2|
